Numix/22/actions/go-jump.svg

<?xml version="1.0" encoding="UTF-8" standalone="no"?>
<svg
   xmlns:dc="http://purl.org/dc/elements/1.1/"
   xmlns:cc="http://creativecommons.org/ns#"
   xmlns:rdf="http://www.w3.org/1999/02/22-rdf-syntax-ns#"
   xmlns:svg="http://www.w3.org/2000/svg"
   xmlns="http://www.w3.org/2000/svg"
   xmlns:sodipodi="http://sodipodi.sourceforge.net/DTD/sodipodi-0.dtd"
   xmlns:inkscape="http://www.inkscape.org/namespaces/inkscape"
   width="22"
   height="22"
   viewBox="0 0 22 22"
   id="svg2"
   version="1.1"
   inkscape:version="0.91 r13725"
   sodipodi:docname="go-jump.svg">
  <metadata
     id="metadata18">
    <rdf:RDF>
      <cc:Work
         rdf:about="">
        <dc:format>image/svg+xml</dc:format>
        <dc:type
           rdf:resource="http://purl.org/dc/dcmitype/StillImage" />
      </cc:Work>
    </rdf:RDF>
  </metadata>
  <defs
     id="defs16" />
  <sodipodi:namedview
     pagecolor="#ffffff"
     bordercolor="#666666"
     borderopacity="1"
     objecttolerance="10"
     gridtolerance="10"
     guidetolerance="10"
     inkscape:pageopacity="0"
     inkscape:pageshadow="2"
     inkscape:window-width="1366"
     inkscape:window-height="704"
     id="namedview14"
     showgrid="true"
     inkscape:zoom="58.513693"
     inkscape:cx="5.0796715"
     inkscape:cy="13.8786"
     inkscape:window-x="0"
     inkscape:window-y="27"
     inkscape:window-maximized="1"
     inkscape:current-layer="svg2">
    <inkscape:grid
       type="xygrid"
       id="grid4149" />
  </sodipodi:namedview>
  <g
     transform="matrix(0 -1 1 0 0 22)"
     id="g4">
    <path
       style="fill:#268bd2;fill-rule:evenodd"
       d="M 3.0136719,5 C 1.7549048,6.6726007 1,8.745886 1,11 1,16.522017 5.4779827,21 11,21 16.522017,21 21,16.522017 21,11 21,8.745886 20.245095,6.6726007 18.986328,5 15,4 7,4 3.0136719,5 Z"
       transform="matrix(0,1,-1,0,22,0)"
       id="path6"
       inkscape:connector-curvature="0"
       sodipodi:nodetypes="cssscc" />
    <g
       style="fill:#fff"
       id="g8">
      <path
         style="fill-rule:evenodd;fill-opacity:1;fill:#eaf4fb"
         d="M 11 1 C 7.9673291 1 5 2 3 5 L 10.003906 5 L 10.003906 13.3125 L 7.9726562 11.34375 C 7.6425927 11.01068 7.1294904 10.912604 6.6914062 11.09375 C 6.2533217 11.274895 5.9889043 11.691698 6.0039062 12.15625 C 6.0128962 12.44842 6.1346153 12.735903 6.3476562 12.9375 L 10.191406 16.65625 C 10.407448 16.869534 10.697846 17 11.003906 17 C 11.309964 17 11.600365 16.869534 11.816406 16.65625 L 15.660156 12.9375 C 16.110243 12.499245 16.110243 11.782007 15.660156 11.34375 C 15.210069 10.905494 14.485244 10.905494 14.035156 11.34375 L 12.003906 13.3125 L 12.003906 5 L 19 5 C 17 2 14.039773 1 11 1 z "
         transform="matrix(0,1,-1,0,22,0)"
         id="path10" />
    </g>
  </g>
</svg>

<svg xmlns="http://www.w3.org/2000/svg" viewBox="0 0 22 22">
 <g transform="matrix(0 -1 1 0 0 22)">
  <path d="m 3.01 5 c -1.259 1.673 -2.01 3.746 -2.01 6 0 5.522 4.478 10 10 10 5.522 0 10 -4.478 10 -10 0 -2.254 -0.755 -4.327 -2.01 -6 -3.986 -1 -11.986 -1 -15.973 0" transform="matrix(0,1,-1,0,22,0)" style="fill:#268bd2;fill-rule:evenodd"/>
  <g style="fill:#fff">
   <path d="m 11 1 c -3.03 0 -6 1 -8 4 l 7 0 l 0 8.313 l -2.031 -1.969 c -0.33 -0.333 -0.843 -0.431 -1.281 -0.25 c -0.438 0.181 -0.703 0.598 -0.688 1.063 c 0.009 0.292 0.131 0.58 0.344 0.781 l 3.844 3.719 c 0.216 0.213 0.506 0.344 0.813 0.344 c 0.306 0 0.596 -0.13 0.813 -0.344 l 3.844 -3.719 c 0.45 -0.438 0.45 -1.155 0 -1.594 c -0.45 -0.438 -1.175 -0.438 -1.625 0 l -2.031 1.969 l 0 -8.313 l 6.996 0 c -2 -3 -4.96 -4 -8 -4 z" transform="matrix(0,1,-1,0,22,0)" style="fill:#eaf4fb;fill-opacity:1;fill-rule:evenodd"/>
  </g>
 </g>
</svg>
